X:1
T:Title
%%score 1 2 3 4
L:1/8
Q:1/4=138
M:4/4
K:G
V:1 treble nm="Church Organ, Church Organ"
V:2 treble nm="French Horn, French Horn"
V:3 treble nm="Trombone, Trombone"
V:4 bass nm="Tuba, Tuba"
V:1
 G4 B4- | B2 B2 A4 | G4 c4- | c4 B4 | d4 e4- | e2 d2 c4 | A4 B4- | B8 | G4 B4- | B2 B2 A4 | %10
w: By~"Wohlauf,~Thut~Nicht~Verzagen,"~B.~Helder *||||||||||
 G4 c4- | c4 B4 | d4 e4- | e2 d2 c4 | A4 B4 | B8 | d4 d4 | c4 B4 | A4 B4 | A2 G2 A4 | F4 G4 | %21
w: |||||||||||
 A4 B4 | ^c4 d4- | d8 | A4 B4 | A4 G4 | F4 E4 | D2 C2 D4 | D4 E4 | G4 G4 | F4 G4- | G8 |] %32
w: |||||||||||
V:2
 D4 G4 | G4 F4 | E4 G4- | G4 G4 | G4 G4 | G4 E4 | F4 G4- | G8 | D4 G4 | G4 F4 | E4 G4- | G4 G4 | %12
 G4 G4 | G4 E4 | F4 G4 | G8 | G4 F4 | G4 G4 | E2 F2 G4 | F2 E2 F4 | D4 D4 | F4 G4 | G4 F4- | F8 | %24
 F4 G4 | F4 E4 | D4 C4 | B,2 A,2 B,4 | D4 D4 | B,2[K:treble] C2 D4 | D4 D4- | D8 |] %32
V:3
 B,4 D4- | D2 D2 D4 | B,4 E4- | E4 D4 | B,4 C4 | B,4 C4 | D4 D4- | D8 | B,4 D4- | D2 D2 D4 | %10
w: The~ Lord~|* and~ King~|of~ all~|* things~|But~ yes|* day~|was~ born;~||And~ Ste|* phen�s~ glor|
 B,4 E4- | E4 D4 | B,4 C4 | B,4 C4 | D4 D4 | D8 | B,4 A,4 | E4 D4 | C4 D4- | D4 D4 | A,4 G,4 | %21
w: ious~ of|* fer|ing~ His~|* tide~|shall~ a|dorn:~|No~ pearls~|of~ o|rient~ splen|* dour,~|No~ jew|
 D4 D4 | G,4 A,4- | A,8 | D4 D4 | D4 B,4 | B,4[K:bass] G,4- | G,4 G,4 | G,4 G,4 | G,4 A,4 | %30
w: els~ can~|he~ show;~||But~ with~|his~ own~|true~ heart�s~|* blood~|His~ shi|ning~ vest|
 A,4 B,4- | B,8 |] %32
w: ments~ glow.~||
V:4
 G,4 G,4 | G,4 D,4 | E,4 C,4- | C,4 G,4 | G,4 C4 | G,4 A,4 | D,4 G,4- | G,8 | G,4 G,4 | G,4 D,4 | %10
 E,4 C,4- | C,4 G,4 | G,4 C4 | G,4 A,4 | D,4 G,4 | G,8 | G,4 D,4 | E,2 F,2 G,4 | A,4 G,4- | %19
 G,4 D,4 | C,4 B,,4 | D,4 G,4 | E,4 D,4- | D,8 | D,4 G,4 | D,4 E,4 | B,,4 C,4- | C,4 G,,4 | %28
 B,,4 C,4 | E,4 D,4 | D,4 G,,4- | G,,8 |] %32

